X:1
T:Title
%%score 1 ( 2 3 )
L:1/8
Q:1/4=102
M:4/4
K:C
V:1 treble nm="Grand Piano, Soprano"
V:2 bass nm="Choir Pad, Shout the Tidings (Brown)"
V:3 bass 
V:1
 [Ec]3 [Ec] [Ec][Ec][GB][FA] | [EG]2 [CE]4 z2 | [EG]3 [FA] [EG][CE]C[CE] | [B,D]6 z2 | %4
w: By~Joseph~Marion~Hunt * * * * *||||
 [Ec]3 [Ec] [Ec][Ec][GB][FA] | [EG]2 [Ec]4 z2 | [Fd]3 [Fd] [Fd][Ec][Ge][Fd] | [Ec]6 z2 | %8
w: ||||
 [Fd]2 [Fd]2 [Fd]3 [Fd] | [Gc]2 [FB]2 [Ec]2 [EG][EG] | [FA][FA][FA][FA] [^FA][Fd][Fd][Fc] | %11
w: |||
 [GB]6 [Gd][Gd] | [Ge]2 [Fd]2 [Ec]2 [EG]G | [FA]2 [FA]2 [EG]3 [Ec] | [Fd]3 [Fd] [Ge]3 [Fd] | %15
w: ||||
 [Ec]8 |] %16
w: |
V:2
 [C,G,]3 [C,G,] [C,G,][C,G,][C,C][C,C] | [C,C]2 [C,G,]4 z2 | [C,C]3 [C,C] [C,C][C,G,][C,E,][C,G,] | %3
 [G,,G,]6 z2 | [C,G,]3 [C,G,] [C,G,][C,G,][C,C][C,C] | [C,C]2 [C,G,]4 z2 | %6
 [G,B,]3 [G,B,] [G,B,][G,C][G,C][G,B,] | [C,C]6 z2 | [G,B,]2 [G,B,]2 [G,B,]3 [F,B,] | %9
 [E,C]2 [D,G,]2 [C,G,]2 [C,C][C,C] | [F,C][F,C][F,C][F,C] [D,C][D,A,][D,A,][D,D] | %11
 [G,D]6 [G,B,][G,B,] | C2 [G,B,]2 [C,C]2 [C,C][E,C] | C2 C2 z4 | [G,B,]3 [G,B,] [G,C]3 [G,B,] | %15
 [C,C]8 |] %16
V:3
 x8 | x8 | x8 | x8 | x8 | x8 | x8 | x8 | x8 | x8 | x8 | x8 | x8 | F,G,A,B, C3 C | x8 | x8 |] %16

